lg/couchdb.svg

<svg viewBox="0 0 512 132" version="1.1" xmlns="http://www.w3.org/2000/svg" preserveAspectRatio="xMidYMid" height="1em" width="1em">
  <g>
    <path d="M229.182469,41.0285933 C242.872957,41.0285933 249.319502,50.3634067 249.319502,64.7214545 C249.319502,78.5895502 242.872957,88.1926124 229.182469,88.1926124 C215.44666,88.1926124 209.00134,78.5895502 209.00134,64.7214545 C209.00134,50.3634067 215.44666,41.0285933 229.182469,41.0285933 Z M268.833072,41.5626411 L268.833072,67.6109474 C268.833072,77.9232153 270.877397,81.9677703 277.45623,81.9677703 C281.19089,81.9677703 284.344957,80.9425455 286.613435,79.8793493 C287.779522,79.3327464 288.845263,78.7214354 289.777837,78.0413134 L290.169263,77.7456077 L290.169263,41.5626411 L298.391885,41.5626411 L298.391885,87.3915407 L292.435292,87.8802679 L291.324325,82.1466029 C290.169263,83.2563445 288.783923,84.2656459 287.190354,85.1683828 C284.47112,86.7105072 280.568651,88.1913876 275.544191,88.1913876 C265.341596,88.1913876 260.751223,81.9714345 260.653685,68.368267 L260.652096,67.922067 L260.652096,41.5626411 L268.833072,41.5626411 Z M329.508746,41.0261435 C333.419789,41.0261435 336.657148,41.6275598 338.975847,42.2693971 C340.17623,42.6027177 341.250947,42.9322871 342.215591,43.3368804 L342.622316,43.5151005 L343.288651,49.5157895 C342.132364,49.1152536 340.88666,48.7208421 339.509895,48.404823 C337.197321,47.8756746 334.087349,47.2926316 330.707904,47.2926316 C322.752306,47.2926316 318.460325,52.3611866 318.484823,64.7631005 C318.505646,76.7203828 322.751081,82.0902584 330.707904,81.9653206 C334.086124,81.9126507 337.241416,81.428823 339.555215,80.8984498 C340.7353,80.6286261 341.819094,80.3318051 342.832052,80.0002732 L343.332746,79.8315789 L342.622316,85.7440766 C341.555445,86.2340287 340.348938,86.6125167 339.021167,86.988555 C336.747789,87.634067 333.509206,88.1387177 329.73045,88.1889378 C319.95223,88.3175502 310.083368,82.3205359 310.083368,64.8966124 C310.083368,46.5381053 319.908134,41.0273684 329.508746,41.0261435 Z M362.181206,24.3138756 L362.181206,47.073378 C367.026833,43.2958469 371.517244,41.8284402 377.516708,41.8284402 C387.768607,41.8284402 391.793652,47.5344895 391.874728,62.1321747 L391.875981,62.586488 L391.875981,88.1913876 L383.650909,88.1913876 L383.650909,63.2099522 C383.650909,51.1191579 380.761416,48.0961531 375.427062,48.0961531 C370.040372,48.0961531 364.570624,51.9601237 362.333241,52.7988434 L362.182431,52.8523636 L362.182431,88.1913876 L353.957359,88.1913876 L353.957359,25.1149474 L362.181206,24.3138756 Z M425.078813,24.3138756 C432.63755,24.3138756 439.809225,25.2264115 445.394679,29.5159426 C450.922565,33.761378 454.595981,41.0285933 454.595981,54.9420096 C454.595981,74.8328054 449.412199,87.9275409 427.741999,88.1874465 L427.080268,88.1913876 L406.766852,88.1913876 L406.766852,24.3138756 L425.078813,24.3138756 Z M468.152957,24.3138756 L485.711617,24.3138756 C502.247502,24.3138756 508.246967,28.9818947 508.246967,41.072689 C508.246967,50.452823 500.247273,53.5186986 496.867828,53.8751388 C499.580938,54.0968421 501.975579,54.7705263 504.070124,55.9635598 C507.666373,58.0152344 511.271196,61.787866 511.271196,69.7422392 C511.271196,82.371721 504.040828,88.0757009 489.536131,88.1896442 L489.089837,88.1913876 L468.152957,88.1913876 L468.152957,24.3138756 L485.711617,24.3138756 Z M182.908938,22.0478469 C187.709244,22.0478469 191.933856,22.7092823 194.954411,23.3829665 C196.734163,23.777378 198.333856,24.1828134 199.755943,24.6715407 L199.755943,24.6715407 L200.467598,31.5614928 C199.000191,31.0286699 197.362526,30.5080957 195.577876,30.0940861 C192.56222,29.3971292 188.4209,28.6781244 183.842297,28.7160957 C172.372517,28.8128612 165.282909,34.9838086 165.350278,54.7215311 C165.416421,73.8786603 171.173359,81.5427368 182.997129,81.4802679 C187.932172,81.4545455 192.191081,80.7882105 195.399043,79.8793493 C197.215541,79.3661244 198.910775,78.857799 200.467598,78.2784306 L200.467598,78.2784306 L199.711847,85.2124785 C198.24444,85.790622 196.600651,86.2854737 194.776804,86.7239809 C191.622737,87.4846316 187.220517,88.1913876 182.019675,88.1913876 C174.862699,88.1913876 168.55089,86.4128612 163.972287,81.2573397 C159.393684,76.1005933 156.564211,67.5656268 156.549454,54.8084976 C156.520115,30.1381818 167.751043,22.0478469 182.908938,22.0478469 Z M229.182469,47.3404019 C220.292287,47.3404019 217.313378,53.5640191 217.313378,64.6320383 C217.313378,74.8536651 220.292287,81.9677703 229.182469,81.9677703 C238.072651,81.9677703 241.050335,74.85489 241.050335,64.6320383 C241.050335,53.5640191 237.939139,47.3404019 229.182469,47.3404019 Z M427.391388,30.7591962 L415.300593,30.7591962 L415.300593,81.7901627 L424.280191,81.7901627 C441.617148,81.7901627 446.214124,75.7894737 446.238691,55.2972249 C446.25822,38.7613397 442.104651,30.7591962 427.391388,30.7591962 Z M486.823809,57.1639426 L476.199196,57.1639426 L476.199196,81.7901627 L486.956096,81.7901627 C497.802411,81.7901627 503.358469,79.923445 503.359694,69.6552727 C503.359694,59.8317321 498.204172,57.1639426 486.823809,57.1639426 Z M484.599426,30.7604211 L476.196746,30.7604211 L476.196746,51.5196938 L486.554335,51.5196938 C496.734316,51.5196938 500.224,47.6956172 500.246137,40.7174737 C500.269321,32.6271388 495.758086,30.7604211 484.599426,30.7604211 Z" fill="#444444"/>
    <path d="M472.838124,104.844861 C480.919422,104.844861 482.922715,107.748571 482.975382,115.69141 L482.976459,116.02067 L482.976459,126.26312 C482.976459,127.476976 483.103847,128.10534 483.53378,128.284172 C483.965918,128.463862 484.767136,128.401467 485.440963,128.385405 L485.660172,128.382163 L485.329455,131.468861 L484.521033,131.696689 C484.020057,131.838775 483.308402,131.925742 482.498756,131.925742 C481.108517,131.925742 480.171483,131.368421 479.565167,130.684938 C478.958852,130.003904 478.679579,128.916211 478.679579,128.512 C478.223923,129.142813 477.589435,129.720957 476.783464,130.231732 C475.390775,131.112421 473.217837,131.89267 469.854316,131.925742 C465.25244,131.968612 462.142469,129.092593 462.142469,124.51644 C462.142469,118.47288 467.857761,117.107139 473.723713,117.107139 C474.779832,117.107139 475.80111,117.146819 476.632698,117.245105 L476.935349,117.284746 L478.325589,117.486852 L478.325589,114.630431 C478.325589,109.243407 476.806737,108.410488 472.484134,108.410488 C470.385914,108.410488 468.386909,108.785301 466.794565,109.168689 C466.044938,109.348011 465.345482,109.547716 464.681146,109.775955 L464.189244,109.952612 L464.69512,106.437206 C465.327158,106.159158 466.062086,105.887234 466.895005,105.653282 C468.314641,105.255196 470.309971,104.844861 472.838124,104.844861 Z M435.338411,104.642513 C441.710239,104.604785 444.861856,109.016804 444.972096,113.644402 C444.989244,114.352383 444.910852,115.539292 444.818986,116.450603 C444.739266,117.260147 444.678073,118.008965 444.591064,118.38194 L444.56666,118.474105 L428.864919,118.474105 L428.864919,119.382967 C428.864919,125.756019 431.973665,127.984077 436.651483,127.930182 C438.573321,127.906909 440.36777,127.671732 441.709014,127.398584 C442.336153,127.272176 442.931151,127.137929 443.493381,126.985809 L443.9089,126.868211 L443.428746,130.25623 C442.821206,130.484057 442.140172,130.688612 441.405244,130.862545 C440.117895,131.168766 438.37244,131.470086 436.32444,131.470086 C428.156938,131.470086 424.035215,127.070316 424.035215,118.346718 C424.035215,108.713033 428.916364,104.679502 435.338411,104.642513 Z M456.073187,95.1340096 L456.073187,131.470086 L451.419866,131.470086 L451.419866,95.59089 L456.073187,95.1340096 Z M493.621895,105.400957 L499.993722,115.868785 L506.31533,105.400957 L511.271196,105.400957 L502.574545,118.499828 L511.271196,131.470086 L506.038507,131.470086 L499.993722,121.306029 L493.901167,131.470086 L488.716249,131.470086 L497.365129,118.499828 L488.716249,105.400957 L493.621895,105.400957 Z M417.891215,104.642756 C418.574699,104.642756 419.232459,104.794641 419.73711,104.920804 C419.938807,104.972249 420.130161,105.034037 420.310082,105.099273 L420.571254,105.198852 L420.015158,108.814699 L419.661167,108.638316 C419.384344,108.561148 418.902967,108.459483 418.093321,108.459483 C416.172708,108.459483 414.531368,109.069474 413.33956,109.648842 C412.794733,109.913416 412.281263,110.223458 411.79915,110.557017 L411.443445,110.811254 L411.443445,131.014431 L406.765627,131.014431 L406.765627,104.896306 L410.027483,104.642756 L410.913072,107.82867 C412.860632,105.803943 415.33734,104.642756 417.891215,104.642756 Z M466.416077,124.695273 C466.416077,127.299368 468.160306,128.513225 471.220057,128.513225 C473.342775,128.513225 475.109053,127.998775 476.352306,127.425531 C476.959643,127.144829 477.520196,126.858173 478.026876,126.521615 L478.324364,126.31334 L478.325589,126.31334 L478.325589,120.16934 L477.08601,120.094622 L474.481914,120.017455 C471.498105,119.930488 466.416077,120.26978 466.416077,124.695273 Z M435.438852,108.105493 C433.847732,108.105493 432.355828,108.561148 431.167694,109.700287 C430.025909,110.792684 429.211491,112.466439 428.969355,115.28399 L428.942086,115.642182 L440.901818,115.642182 C440.901818,115.364134 440.909167,115.163254 440.927541,115.010144 C440.959388,114.730871 440.958163,114.454048 440.952038,114.224995 C440.832,109.925665 438.550048,108.105493 435.438852,108.105493 Z" fill="#777777"/>
    <path d="M109.189512,58.7942584 C109.189512,64.3637895 106.255923,67.092823 100.790507,67.1895885 L100.790507,67.1932632 L33.597244,67.1932632 L33.597244,67.1895885 C28.1318278,67.092823 25.1982392,64.3637895 25.1982392,58.7942584 C25.1982392,53.2259522 28.1318278,50.4956938 33.597244,50.4001531 L33.597244,50.3952536 L100.790507,50.3952536 L100.790507,50.4001531 C106.255923,50.4956938 109.189512,53.2259522 109.189512,58.7942584 M100.790507,71.3982775 L100.790507,71.393378 L33.597244,71.393378 L33.597244,71.3982775 C28.1318278,71.4938182 25.1982392,74.2240766 25.1982392,79.7936077 C25.1982392,85.3631388 28.1318278,88.0909474 33.597244,88.1877129 L33.597244,88.1913876 L100.790507,88.1913876 L100.790507,88.186488 C106.255923,88.0909474 109.189512,85.3619139 109.189512,79.7923828 C109.189512,74.2228517 106.255923,71.4938182 100.790507,71.3982775 M121.788632,25.2068134 L121.788632,25.2019139 C116.323215,25.2986794 113.389627,28.0277129 113.389627,33.597244 L113.389627,79.7923828 C113.389627,85.3619139 116.323215,88.0897225 121.788632,88.186488 L121.788632,88.1779139 C129.986756,87.890067 134.387751,79.7017416 134.387751,62.9943732 L134.387751,41.9962488 C134.387751,30.8584115 129.986756,25.4003445 121.788632,25.2068134 M12.5991196,25.2019139 L12.5991196,25.2068134 C4.40099522,25.4003445 0,30.8584115 0,41.9962488 L0,62.9943732 C0,79.7017416 4.40099522,87.8888421 12.5991196,88.1779139 L12.5991196,88.186488 C18.0645359,88.0909474 20.9981244,85.3619139 20.9981244,79.7923828 L20.9981244,33.597244 C20.9981244,28.0277129 18.0645359,25.2986794 12.5991196,25.2019139 M121.788632,20.9981244 C121.788632,7.07490909 114.454048,0.252325359 100.790507,0.0110239234 L100.790507,0 L33.597244,0 L33.597244,0.0110239234 C19.9349282,0.252325359 12.5991196,7.07490909 12.5991196,20.9981244 L12.5991196,21.0054737 C20.797244,21.1500096 25.1982392,25.2435598 25.1982392,33.597244 C25.1982392,41.9509282 29.5992344,46.0444785 37.7973589,46.1890144 L37.7973589,46.1951388 L96.5916172,46.1951388 L96.5916172,46.1890144 C104.788517,46.0444785 109.189512,41.9509282 109.189512,33.597244 C109.189512,25.2435598 113.590507,21.1500096 121.788632,21.0054737 L121.788632,20.9981244 Z" fill="#E42528"/>
  </g>
</svg>

<svg viewBox="0 0 512 132" xmlns="http://www.w3.org/2000/svg" preserveAspectRatio="xMidYMid" height="1em" width="1em">
  <path d="M229.182 41.029c13.691 0 20.138 9.334 20.138 23.692 0 13.869-6.447 23.472-20.138 23.472-13.735 0-20.18-9.603-20.18-23.472 0-14.358 6.445-23.692 20.18-23.692Zm39.651.534V67.61c0 10.312 2.044 14.357 8.623 14.357 3.735 0 6.889-1.025 9.157-2.089 1.167-.546 2.232-1.158 3.165-1.838l.391-.295V41.563h8.223v45.829l-5.957.488-1.11-5.733c-1.156 1.11-2.541 2.119-4.135 3.021-2.719 1.543-6.621 3.023-11.646 3.023-10.202 0-14.793-6.22-14.89-19.823l-.002-.446v-26.36h8.181Zm60.676-.537c3.91 0 7.148.602 9.467 1.243 1.2.334 2.275.663 3.24 1.068l.406.178.667 6a36.073 36.073 0 0 0-3.78-1.11c-2.312-.53-5.422-1.112-8.801-1.112-7.956 0-12.248 5.068-12.223 17.47.02 11.957 4.266 17.327 12.223 17.202a43.797 43.797 0 0 0 8.847-1.067 37.01 37.01 0 0 0 3.277-.898l.5-.168-.71 5.912c-1.067.49-2.273.869-3.6 1.245-2.274.645-5.513 1.15-9.292 1.2-9.778.129-19.647-5.868-19.647-23.292 0-18.359 9.825-23.87 19.426-23.87Zm32.672-16.712v22.76c4.846-3.778 9.336-5.246 15.336-5.246 10.252 0 14.277 5.706 14.358 20.304l.001.454v25.605h-8.225V63.21c0-12.09-2.89-15.114-8.224-15.114-5.387 0-10.856 3.864-13.094 4.703l-.15.053v35.34h-8.226V25.114l8.224-.801Zm62.898 0c7.559 0 14.73.912 20.316 5.202 5.528 4.245 9.201 11.513 9.201 25.426 0 19.89-5.184 32.986-26.854 33.245l-.662.004h-20.313V24.314h18.312Zm43.074 0h17.559c16.536 0 22.535 4.668 22.535 16.759 0 9.38-8 12.446-11.38 12.802 2.714.222 5.109.896 7.203 2.089 3.596 2.051 7.201 5.824 7.201 13.778 0 12.63-7.23 18.334-21.735 18.448l-.446.001h-20.937V24.314h17.559Zm-285.244-2.266c4.8 0 9.025.661 12.045 1.335 1.78.394 3.38.8 4.802 1.289l.712 6.89a42.353 42.353 0 0 0-4.89-1.468c-3.016-.697-7.157-1.416-11.736-1.378-11.47.097-18.56 6.268-18.492 26.006.066 19.157 5.823 26.82 17.647 26.758 4.935-.025 9.194-.692 12.402-1.6 1.817-.514 3.512-1.022 5.069-1.602l-.756 6.934c-1.468.579-3.111 1.073-4.935 1.512-3.154.76-7.556 1.467-12.757 1.467-7.157 0-13.47-1.778-18.048-6.934-4.578-5.156-7.408-13.691-7.423-26.449-.029-24.67 11.202-32.76 26.36-32.76Zm46.273 25.292c-8.89 0-11.869 6.224-11.869 17.292 0 10.222 2.98 17.336 11.87 17.336 8.89 0 11.867-7.113 11.867-17.336 0-11.068-3.11-17.292-11.868-17.292Zm198.21-16.58H415.3v51.03h8.98c17.336 0 21.933-6 21.958-26.493.02-16.536-4.134-24.538-18.848-24.538Zm59.432 26.404h-10.625V81.79h10.757c10.846 0 16.402-1.867 16.404-12.135 0-9.823-5.156-12.491-16.536-12.491Zm-2.225-26.404h-8.402v20.76h10.357c10.18 0 13.67-3.824 13.692-10.803.023-8.09-4.488-9.957-15.647-9.957Z" fill="#444"/>
  <path d="M472.838 104.845c8.081 0 10.085 2.904 10.137 10.846l.001.33v10.242c0 1.214.128 1.842.558 2.021.432.18 1.233.117 1.907.101l.22-.003-.332 3.087-.808.228c-.5.142-1.213.229-2.022.229-1.39 0-2.328-.558-2.934-1.241-.606-.681-.885-1.769-.885-2.173-.456.63-1.09 1.209-1.897 1.72-1.392.88-3.565 1.66-6.929 1.694-4.602.043-7.712-2.833-7.712-7.41 0-6.043 5.716-7.409 11.582-7.409 1.056 0 2.077.04 2.909.138l.302.04 1.39.202v-2.857c0-5.387-1.518-6.22-5.84-6.22-2.1 0-4.098.375-5.69.759-.75.179-1.45.379-2.114.607l-.492.177.506-3.516c.632-.278 1.367-.55 2.2-.784a21.778 21.778 0 0 1 5.943-.808Zm-37.5-.202c6.372-.038 9.524 4.374 9.634 9.001.017.708-.061 1.895-.153 2.807-.08.81-.14 1.558-.228 1.93l-.024.093h-15.702v.909c0 6.373 3.109 8.601 7.786 8.547a27.754 27.754 0 0 0 5.058-.531 28.17 28.17 0 0 0 1.784-.413l.416-.118-.48 3.388c-.608.228-1.289.433-2.024.607a21.961 21.961 0 0 1-5.08.607c-8.168 0-12.29-4.4-12.29-13.123 0-9.634 4.881-13.667 11.303-13.704Zm20.735-9.509v36.336h-4.653V95.59l4.653-.456Zm37.549 10.267 6.372 10.468 6.321-10.468h4.956l-8.696 13.099 8.696 12.97h-5.232l-6.045-10.164-6.093 10.164h-5.185l8.65-12.97-8.65-13.099h4.906Zm-75.73-.758c.683 0 1.34.152 1.845.278.202.051.393.113.573.178l.261.1-.556 3.616-.354-.177c-.277-.077-.758-.179-1.568-.179-1.92 0-3.562.61-4.753 1.19-.545.264-1.059.574-1.54.908l-.357.254v20.203h-4.677v-26.118l3.261-.253.886 3.186c1.948-2.025 4.424-3.186 6.978-3.186Zm48.524 20.052c0 2.604 1.744 3.818 4.804 3.818 2.123 0 3.89-.514 5.132-1.087.608-.281 1.168-.568 1.675-.904l.297-.209h.002v-6.144l-1.24-.074-2.604-.078c-2.984-.087-8.066.253-8.066 4.678Zm-30.977-16.59c-1.591 0-3.083.456-4.271 1.595-1.142 1.093-1.957 2.766-2.199 5.584l-.027.358h11.96c0-.278.007-.479.026-.632.031-.28.03-.556.024-.785-.12-4.3-2.402-6.12-5.513-6.12Z" fill="#777"/>
  <path d="M109.19 58.794c0 5.57-2.934 8.299-8.4 8.396v.003H33.598v-.003c-5.465-.097-8.399-2.826-8.399-8.396 0-5.568 2.934-8.298 8.4-8.394v-.005h67.193v.005c5.465.096 8.399 2.826 8.399 8.394m-8.4 12.604v-.005H33.598v.005c-5.465.096-8.399 2.826-8.399 8.396s2.934 8.297 8.4 8.394v.003h67.193v-.005c5.465-.095 8.399-2.824 8.399-8.394s-2.934-8.298-8.4-8.394m20.999-46.191v-.005c-5.466.097-8.4 2.826-8.4 8.395v46.195c0 5.57 2.934 8.298 8.4 8.394v-.008c8.198-.288 12.599-8.476 12.599-25.184V41.996c0-11.138-4.401-16.596-12.6-16.79M12.6 25.203v.005C4.401 25.4 0 30.858 0 41.997v20.997C0 79.702 4.401 87.89 12.6 88.178v.008c5.465-.095 8.398-2.824 8.398-8.394V33.597c0-5.57-2.933-8.298-8.399-8.395m109.19-4.204c0-13.923-7.335-20.746-20.998-20.987V0H33.597v.011C19.935.252 12.6 7.075 12.6 20.998v.007c8.198.145 12.6 4.239 12.6 12.592 0 8.354 4.4 12.447 12.598 12.592v.006h58.795v-.006c8.197-.145 12.598-4.238 12.598-12.592 0-8.353 4.4-12.447 12.599-12.592v-.007Z" fill="#E42528"/>
</svg>
